src/icons/file-presentation.svg

<?xml version="1.0" encoding="UTF-8" standalone="no"?>
<svg
   version="1.2"
   viewBox="0 0 16 16"
   width="16"
   height="16"
   id="svg1"
   xmlns="http://www.w3.org/2000/svg"
   xmlns:svg="http://www.w3.org/2000/svg">
  <defs
     id="defs1" />
  <title
     id="title1">template-rectangle-svg</title>
  <style
     id="style1">
		.s0 { fill: #F1667F }
	</style>
  <g
     id="Layer 1">
    <path
       id="path1"
       class="s0"
       d="M 4.1992188,3 C 3.0992187,3 2.4996094,2.9992186 2.0996094,3.1992188 1.6996094,3.3992186 1.3992185,3.6996094 1.1992188,4.0996094 0.9992186,4.4996094 1,5.0992187 1,6.1992188 v 3.6015624 c 0,1.0999998 -7.814e-4,1.6996098 0.1992188,2.0996098 0.1999999,0.4 0.5003906,0.70039 0.9003906,0.90039 0.4,0.2 0.9996093,0.199219 2.0996094,0.199219 h 7.6015622 c 1.1,0 1.69961,7.81e-4 2.09961,-0.199219 0.4,-0.2 0.70039,-0.50039 0.90039,-0.90039 0.2,-0.4 0.199219,-0.99961 0.199219,-2.0996098 V 6.1992188 c 0,-1.1 7.81e-4,-1.6996094 -0.199219,-2.0996094 -0.2,-0.4 -0.50039,-0.7003907 -0.90039,-0.9003906 C 13.500391,2.9992184 12.900781,3 11.800781,3 Z M 6,5 C 7.7,5 9,6.3 9,8 9,9.7 7.7,11 6,11 4.3,11 3,9.7 3,8 3,6.3 4.3,5 6,5 Z m 5,0 h 1 c 0.6,0 1,0.4 1,1 0,0.6 -0.4,1 -1,1 H 11 C 10.4,7 10,6.6 10,6 10,5.4 10.4,5 11,5 Z m -0.5,3 h 2 C 12.8,8 13,8.2 13,8.5 13,8.8 12.8,9 12.5,9 h -2 C 10.2,9 10,8.8 10,8.5 10,8.2 10.2,8 10.5,8 Z m 0,2 h 2 c 0.3,0 0.5,0.2 0.5,0.5 0,0.3 -0.2,0.5 -0.5,0.5 h -2 C 10.2,11 10,10.8 10,10.5 10,10.2 10.2,10 10.5,10 Z" />
  </g>
</svg>

<svg xmlns="http://www.w3.org/2000/svg" width="16" height="16" version="1.2"><path d="M4.2 3c-1.1 0-1.7 0-2.1.2q-.6.3-.9.9c-.2.4-.2 1-.2 2.1v3.6c0 1.1 0 1.7.2 2.1q.3.6.9.9c.4.2 1 .2 2.1.2h7.6c1.1 0 1.7 0 2.1-.2q.6-.3.9-.9c.2-.4.2-1 .2-2.1V6.2c0-1.1 0-1.7-.2-2.1q-.3-.6-.9-.9c-.4-.2-1-.2-2.1-.2ZM6 5c1.7 0 3 1.3 3 3s-1.3 3-3 3-3-1.3-3-3 1.3-3 3-3m5 0h1c.6 0 1 .4 1 1s-.4 1-1 1h-1c-.6 0-1-.4-1-1s.4-1 1-1m-.5 3h2c.3 0 .5.2.5.5s-.2.5-.5.5h-2c-.3 0-.5-.2-.5-.5s.2-.5.5-.5m0 2h2c.3 0 .5.2.5.5s-.2.5-.5.5h-2c-.3 0-.5-.2-.5-.5s.2-.5.5-.5" style="fill:#f1667f"/></svg>
